frontend/src/assets/githubLogo.svg

<svg width="58" height="58" viewBox="0 0 58 58" fill="none" xmlns="http://www.w3.org/2000/svg">
<path fill-rule="evenodd" clip-rule="evenodd" d="M29 1.8125C13.6451 1.8125 1.20837 14.2493 1.20837 29.6042C1.20837 41.902 9.16374 52.2891 20.2109 55.9715C21.6005 56.2147 22.1216 55.3809 22.1216 54.6514C22.1216 53.9914 22.0869 51.8028 22.0869 49.4752C15.1042 50.7606 13.2977 47.773 12.7419 46.2097C12.4293 45.4107 11.0744 42.9442 9.89327 42.2841C8.92056 41.763 7.53098 40.4777 9.85853 40.4429C12.0471 40.4082 13.6104 42.4578 14.1315 43.2916C16.6327 47.495 20.6278 46.3139 22.2258 45.5844C22.469 43.7779 23.1985 42.562 23.9975 41.8672C17.8139 41.1724 11.3523 38.7754 11.3523 28.1451C11.3523 25.1228 12.4293 22.6215 14.201 20.6761C13.9231 19.9813 12.9504 17.1327 14.4789 13.3113C14.4789 13.3113 16.8064 12.5818 22.1216 16.1599C24.3449 15.5346 26.7072 15.222 29.0695 15.222C31.4318 15.222 33.7941 15.5346 36.0174 16.1599C41.3326 12.547 43.6601 13.3113 43.6601 13.3113C45.1887 17.1327 44.216 19.9813 43.9381 20.6761C45.7098 22.6215 46.7867 25.088 46.7867 28.1451C46.7867 38.8102 40.2904 41.1724 34.1068 41.8672C35.1142 42.7357 35.9827 44.4032 35.9827 47.0087C35.9827 50.7258 35.948 53.7134 35.948 54.6514C35.948 55.3809 36.4691 56.2494 37.8586 55.9715C48.8363 52.2891 56.7917 41.8672 56.7917 29.6042C56.7917 14.2493 44.3549 1.8125 29 1.8125V1.8125Z" fill="#1E2022"/>
</svg>

<svg xmlns="http://www.w3.org/2000/svg" width="58" height="58" fill="none"><path fill="#1E2022" fill-rule="evenodd" d="M29 1.813c-15.355 0-27.792 12.436-27.792 27.791 0 12.298 7.956 22.685 19.003 26.368 1.39.243 1.91-.591 1.91-1.32 0-.66-.034-2.85-.034-5.177-6.983 1.286-8.79-1.702-9.345-3.265-.313-.8-1.668-3.266-2.849-3.926-.972-.521-2.362-1.806-.034-1.841 2.188-.035 3.751 2.015 4.273 2.849 2.5 4.203 6.496 3.022 8.094 2.292.243-1.806.973-3.022 1.771-3.717-6.183-.695-12.645-3.092-12.645-13.722 0-3.022 1.077-5.523 2.849-7.469-.278-.695-1.25-3.543.278-7.365 0 0 2.327-.73 7.643 2.849a25.8 25.8 0 0 1 6.948-.938c2.362 0 4.724.313 6.947.938 5.316-3.613 7.643-2.849 7.643-2.849 1.529 3.822.556 6.67.278 7.365 1.772 1.946 2.849 4.412 2.849 7.47 0 10.664-6.497 13.026-12.68 13.721 1.007.869 1.876 2.536 1.876 5.142 0 3.717-.035 6.704-.035 7.642 0 .73.521 1.598 1.91 1.32 10.978-3.682 18.934-14.104 18.934-26.367C56.792 14.25 44.355 1.813 29 1.813" clip-rule="evenodd"/></svg>
